X: 7
T: Memories of Mary Anne MacKenzie
T: Air, D
C: Hector MacKenzie
L: 1/16
M: 4/4
K: D
|: F1G1| A6F2 G3F1E1F3| D4A4 A6d1e1| f6d2 g3f1e1D3| E4e4 e6f1g1| 
a3g1f1d3 f3e1d3=c1| B1d3c1e3 d4F4| B3A1G1E3 A,3C1F1E3| E6D2 D6:| 
|: f1g1| a6f2 g3f1e1d3| e4A4 A6f1g1| a6f2 e3g1b1g3| a8 a6b2| 
    a6f2 g3f1e3d1| e1g3f1a3 g1b3a3g1| f3d1e3c1 d3A1B1G3| F4D4 D6:| 
|: F1G1| A4a4 g3f1e1d3| B1d3c1e3 A6F1G1| A6a2 g3f1e1d3| c3A1c1e3 a8| 
b3a1g1b3 a3g1f1d3| e1g3f1a3 g1b3a3g1| f3d1e3c1 d3A1B1G3| F4D4 D6:| 
D: Carl MacKenzie, Cape Breton Fiddle Medleys, CLM8, 1996
